src/lib/packages/icons/src/assets/line/cake.svg

<svg xmlns="http://www.w3.org/2000/svg" width="24" height="24" fill="none"><path fill="currentColor" d="M21 17.25h-.25V10c0-2.42-1.33-3.75-3.75-3.75h-.25V4c0-.41-.34-.75-.75-.75s-.75.34-.75.75v2.25h-2.5V4c0-.41-.34-.75-.75-.75s-.75.34-.75.75v2.25h-2.5V4c0-.41-.34-.75-.75-.75s-.75.34-.75.75v2.25H7c-2.42 0-3.75 1.33-3.75 3.75v7.25H3c-.41 0-.75.34-.75.75v1.5c0 1.24 1.01 2.25 2.25 2.25h15c1.24 0 2.25-1.01 2.25-2.25V18c0-.41-.34-.75-.75-.75ZM7 7.75h10c1.58 0 2.25.67 2.25 2.25v1.15c-.74.3-1.38.98-1.84 1.6-.54-.82-1.44-1.75-2.74-1.75-1.3 0-2.12.85-2.66 1.64-.55-.79-1.42-1.64-2.66-1.64-1.24 0-2.2.93-2.74 1.75-.46-.62-1.11-1.3-1.84-1.6V10c0-1.58.67-2.25 2.25-2.25H7Zm-2.25 5.17c.46.43.95 1.12 1.25 1.68.14.26.42.42.72.39.3-.02.55-.22.65-.49 0-.02.76-2 1.97-2s1.95 1.98 1.96 2a.755.755 0 0 0 1.42 0c.18-.52.93-2 1.96-2 1.21 0 1.96 1.98 1.97 2 .1.28.36.47.65.49.31.03.58-.13.72-.39.3-.56.79-1.24 1.25-1.68v4.33H4.77v-4.33h-.02Zm15.5 6.58c0 .41-.34.75-.75.75h-15c-.41 0-.75-.34-.75-.75v-.75h16.5v.75Z"/></svg>

<svg width="24" height="24" viewBox="0 0 24 24" fill="none" xmlns="http://www.w3.org/2000/svg">
<path d="M21 17.25H20.75V10C20.75 7.58 19.42 6.25 17 6.25H16.75V4C16.75 3.59 16.41 3.25 16 3.25C15.59 3.25 15.25 3.59 15.25 4V6.25H12.75V4C12.75 3.59 12.41 3.25 12 3.25C11.59 3.25 11.25 3.59 11.25 4V6.25H8.75V4C8.75 3.59 8.41 3.25 8 3.25C7.59 3.25 7.25 3.59 7.25 4V6.25H7C4.58 6.25 3.25 7.58 3.25 10V17.25H3C2.59 17.25 2.25 17.59 2.25 18V19.5C2.25 20.74 3.26 21.75 4.5 21.75H19.5C20.74 21.75 21.75 20.74 21.75 19.5V18C21.75 17.59 21.41 17.25 21 17.25ZM7 7.75H17C18.58 7.75 19.25 8.42 19.25 10V11.15C18.51 11.45 17.87 12.13 17.41 12.75C16.87 11.93 15.97 11 14.67 11C13.37 11 12.55 11.85 12.01 12.64C11.46 11.85 10.59 11 9.35001 11C8.11001 11 7.14999 11.93 6.60999 12.75C6.14999 12.13 5.49999 11.45 4.76999 11.15V10C4.76999 8.42 5.43999 7.75 7.01999 7.75H7ZM4.75 12.92C5.21 13.35 5.7 14.04 6 14.6C6.14 14.86 6.42 15.02 6.72 14.99C7.02 14.97 7.27 14.77 7.37 14.5C7.37 14.48 8.13 12.5 9.34 12.5C10.55 12.5 11.29 14.48 11.3 14.5C11.41 14.8 11.69 15 12.01 15C12.33 15 12.61 14.8 12.72 14.5C12.9 13.98 13.65 12.5 14.68 12.5C15.89 12.5 16.64 14.48 16.65 14.5C16.75 14.78 17.01 14.97 17.3 14.99C17.61 15.02 17.88 14.86 18.02 14.6C18.32 14.04 18.81 13.36 19.27 12.92V17.25H4.76999V12.92H4.75ZM20.25 19.5C20.25 19.91 19.91 20.25 19.5 20.25H4.5C4.09 20.25 3.75 19.91 3.75 19.5V18.75H20.25V19.5Z" fill="currentColor"/>
</svg>
